svg/baby_male_0306m_outline.svg

<svg width="48" height="48" viewBox="0 0 48 48" fill="none" xmlns="http://www.w3.org/2000/svg">
<path fill-rule="evenodd" clip-rule="evenodd" d="M20.6458 3.99799C19.5818 4.04489 18.4228 4.45398 17.7068 5.45507C16.7198 7.12385 17.7798 7.96164 19.2618 8.47653C15.0388 9.76971 11.7599 12.7089 10.4039 16.4158C10.1059 16.3478 9.80029 16.3138 9.49399 16.3118C7.18132 16.3118 5.30654 18.1868 5.30654 20.4998C5.30654 22.8128 7.18132 24.6877 9.49399 24.6877C9.88519 24.6867 10.2749 24.6317 10.6499 24.5227C12.7409 29.3507 18.0538 32.5496 23.9917 32.5566C26.8927 32.5496 29.7216 31.7746 32.1036 30.3357C33.3976 31.7456 35.2236 32.5506 37.1385 32.5546C40.9235 32.5546 43.9915 29.4857 43.9915 25.7007C43.9885 24.1977 43.4915 22.7378 42.5775 21.5448C42.6675 21.2038 42.7125 20.8528 42.7145 20.4998C42.7145 18.1868 40.8395 16.3118 38.5265 16.3118C38.2135 16.3138 37.9015 16.3508 37.5975 16.4218C35.7216 11.2659 30.2166 7.76124 23.9917 7.75974C23.6337 7.76104 23.2767 7.77404 22.9197 7.79874C22.0417 7.15215 17.9278 7.33954 19.6858 5.74796C21.2277 4.48268 23.4007 5.10667 20.5488 6.54295C24.8707 5.55087 22.9887 3.89509 20.6458 3.99799ZM24.3217 8.26753C31.6236 8.27123 36.4166 13.3809 37.2845 17.0448C39.0905 16.4188 42.1255 17.3898 42.1905 20.5308C42.1905 20.7028 42.1745 20.8708 42.1475 21.0348C40.8535 19.6428 39.0395 18.8498 37.1385 18.8478C33.3536 18.8488 30.2866 21.9168 30.2866 25.7007C30.2896 27.2277 30.8016 28.7097 31.7416 29.9117C29.4376 31.3456 26.8367 32.1576 24.6477 32.0346C17.6638 32.0306 12.5169 28.3907 10.9429 23.9157C8.828 24.6437 6.23293 23.7157 5.82804 20.5428C5.89794 18.1798 8.34451 16.0248 10.7009 17.0818C12.3369 12.3269 17.0648 8.27493 24.3217 8.26753ZM20.0118 17.0118C19.1778 17.0108 18.5018 17.6858 18.5018 18.5198C18.5018 19.3528 19.1778 20.0278 20.0118 20.0268C20.8437 20.0268 21.5187 19.3518 21.5197 18.5198C21.5187 17.6868 20.8437 17.0118 20.0118 17.0118ZM28.0117 17.0118C27.1777 17.0108 26.5017 17.6858 26.5017 18.5198C26.5017 19.3528 27.1777 20.0278 28.0117 20.0268C28.8436 20.0268 29.5186 19.3518 29.5196 18.5198C29.5186 17.6868 28.8436 17.0118 28.0117 17.0118ZM37.1385 19.2828C39.0205 19.2858 40.8075 20.1148 42.0245 21.5508L42.0305 21.5568C42.1515 21.6998 42.2665 21.8488 42.3745 22.0018C43.1415 23.0827 43.5555 24.3747 43.5585 25.7007C43.5585 29.2457 40.6845 32.1186 37.1405 32.1186C35.3756 32.1166 33.6896 31.3886 32.4786 30.1047C32.4696 30.0957 32.4616 30.0857 32.4526 30.0757C32.3346 29.9507 32.2206 29.8197 32.1126 29.6857L32.1106 29.6877C31.2126 28.5527 30.7236 27.1477 30.7246 25.7007C30.7246 22.1578 33.5956 19.2848 37.1385 19.2828ZM36.8005 19.6558C35.5866 19.6938 34.4666 20.3258 33.8106 21.3478C32.7116 23.0577 33.2106 25.3337 34.9216 26.4317C35.5966 26.8617 36.3926 27.0607 37.1905 26.9977L37.8105 29.8357L36.3746 29.4837L38.5975 31.5406L39.8235 28.7297L38.6595 29.6347L38.0465 26.8317C38.8535 26.5687 39.5445 26.0357 40.0035 25.3217C41.1005 23.6117 40.6055 21.3358 38.8955 20.2378C38.2725 19.8378 37.5415 19.6348 36.8005 19.6558ZM36.9075 20.5268C37.4445 20.5268 37.9705 20.6808 38.4235 20.9708C39.7285 21.8078 40.1075 23.5457 39.2695 24.8517C38.4315 26.1567 36.6955 26.5347 35.3906 25.6967C34.0856 24.8587 33.7086 23.1227 34.5466 21.8178C35.0636 21.0138 35.9516 20.5268 36.9075 20.5268ZM19.1638 23.6447C18.9168 23.6667 18.6938 23.9087 18.7268 24.3027C18.9298 26.2807 21.2347 27.8117 24.0117 27.8137C26.7897 27.8137 29.0966 26.2817 29.3006 24.3027C28.1297 25.9557 26.2987 27.0367 24.0117 27.0837C21.7977 27.0827 19.9498 25.8767 19.7498 24.3027C19.6828 23.8187 19.4108 23.6217 19.1638 23.6447ZM7.86691 35.0956C7.03882 35.0956 6.40453 35.3696 5.96263 35.9196C5.52424 36.4696 5.30444 37.2766 5.30444 38.3376V39.7355C5.31484 40.7555 5.53984 41.5375 5.97823 42.0835C6.41663 42.6295 7.04852 42.9035 7.87671 42.9035C8.7152 42.9035 9.35189 42.6245 9.78679 42.0675C10.2217 41.5115 10.4387 40.7085 10.4387 39.6575V38.2596C10.4287 37.2396 10.2057 36.4586 9.76729 35.9156C9.32889 35.3696 8.695 35.0956 7.86691 35.0956ZM13.8626 35.0956C13.4006 35.0956 12.9756 35.1856 12.5897 35.3626C12.2067 35.5406 11.9087 35.7866 11.6927 36.1036C11.4807 36.4166 11.3747 36.7706 11.3747 37.1676H12.8826C12.8826 36.9136 12.9806 36.7086 13.1756 36.5526C13.3706 36.3926 13.6116 36.3116 13.8996 36.3116C14.2206 36.3116 14.4706 36.3976 14.6516 36.5676C14.8366 36.7386 14.9296 36.9766 14.9296 37.2826C14.9296 37.5996 14.8366 37.8536 14.6516 38.0446C14.4676 38.2356 14.1836 38.3316 13.8006 38.3316H12.9976V39.5115H13.7966C14.6316 39.5115 15.0486 39.8915 15.0486 40.6495C15.0486 40.9635 14.9456 41.2145 14.7396 41.4055C14.5376 41.5935 14.2586 41.6875 13.8996 41.6875C13.5866 41.6875 13.3226 41.5965 13.1066 41.4155C12.8946 41.2345 12.7886 41.0015 12.7886 40.7165H11.2807C11.2807 41.3735 11.5197 41.9045 11.9997 42.3045C12.4837 42.7045 13.1046 42.9035 13.8626 42.9035C14.6736 42.9035 15.3256 42.6995 15.8156 42.2925C16.3106 41.8855 16.5566 41.3445 16.5566 40.6695C16.5566 40.2515 16.4506 39.8895 16.2376 39.5835C16.0296 39.2775 15.7106 39.0495 15.2826 38.8955C15.6276 38.7396 15.9066 38.5146 16.1186 38.2226C16.3306 37.9296 16.4376 37.6096 16.4376 37.2616C16.4376 36.5866 16.2096 36.0586 15.7536 35.6756C15.2976 35.2896 14.6666 35.0956 13.8626 35.0956ZM24.2965 35.0956C23.4685 35.0956 22.8335 35.3696 22.3925 35.9196C21.9535 36.4696 21.7335 37.2766 21.7335 38.3376V39.7355C21.7445 40.7555 21.9695 41.5375 22.4075 42.0835C22.8465 42.6295 23.4795 42.9035 24.3085 42.9035C25.1465 42.9035 25.7835 42.6245 26.2185 42.0675C26.6535 41.5115 26.8705 40.7085 26.8705 39.6575V38.2596C26.8605 37.2396 26.6355 36.4586 26.1965 35.9156C25.7585 35.3696 25.1245 35.0956 24.2965 35.0956ZM31.7334 35.1226C30.9644 35.1266 30.2894 35.3016 29.7044 35.6496C29.1234 35.9946 28.6755 36.4816 28.3625 37.1146C28.0535 37.7446 27.8975 38.4716 27.8975 39.2965V39.8395C27.8975 40.7685 28.1435 41.5115 28.6345 42.0675C29.1284 42.6245 29.7754 42.9035 30.5754 42.9035C31.0694 42.9035 31.5124 42.7925 31.9014 42.5695C32.2954 42.3475 32.5974 42.0365 32.8104 41.6365C33.0254 41.2365 33.1344 40.7885 33.1344 40.2945C33.1344 39.5215 32.9384 38.8985 32.5484 38.4256C32.1584 37.9526 31.6334 37.7166 30.9724 37.7166C30.3564 37.7166 29.8464 37.9206 29.4424 38.3316C29.5264 37.7196 29.7744 37.2406 30.1884 36.8956C30.6064 36.5516 31.1574 36.3756 31.8394 36.3646H31.9854V35.1226H31.7334ZM34.1924 35.2006V42.8005H35.7594V40.7225L35.6014 37.1426L37.6473 42.8005H38.7243L40.7743 37.1366L40.6183 40.7225V42.8005H42.1883V35.2006H40.1323L38.1903 40.7125L36.2394 35.2006H34.1924ZM7.86671 36.3176C8.23201 36.3176 8.4989 36.4606 8.6694 36.7496C8.8434 37.0346 8.9311 37.4926 8.9311 38.1226V39.9295C8.9242 40.5245 8.8388 40.9665 8.6753 41.2555C8.5117 41.5445 8.24531 41.6875 7.87651 41.6875C7.50412 41.6875 7.23252 41.5385 7.06202 41.2395C6.89502 40.9375 6.81202 40.4745 6.81202 39.8545V38.0076C6.82242 37.4266 6.91062 37.0016 7.07762 36.7296C7.24812 36.4556 7.51182 36.3176 7.86671 36.3176ZM24.2965 36.3176C24.6615 36.3176 24.9305 36.4606 25.1015 36.7496C25.2755 37.0346 25.3605 37.4926 25.3605 38.1226V39.9295C25.3535 40.5245 25.2705 40.9665 25.1065 41.2555C24.9435 41.5445 24.6765 41.6875 24.3085 41.6875C23.9355 41.6875 23.6645 41.5385 23.4935 41.2395C23.3265 40.9375 23.2435 40.4745 23.2435 39.8545V38.0076C23.2545 37.4266 23.3425 37.0016 23.5095 36.7296C23.6795 36.4556 23.9415 36.3176 24.2965 36.3176ZM30.5134 38.9275C30.8544 38.9275 31.1254 39.0545 31.3274 39.3085C31.5294 39.5625 31.6304 39.8955 31.6304 40.3105C31.6304 40.7175 31.5294 41.0485 31.3274 41.3065C31.1294 41.5605 30.8684 41.6875 30.5444 41.6875C30.1864 41.6875 29.9064 41.5465 29.7084 41.2655C29.5104 40.9795 29.4114 40.5845 29.4114 40.0795V39.6205C29.5054 39.4115 29.6524 39.2455 29.8514 39.1205C30.0494 38.9915 30.2694 38.9275 30.5134 38.9275ZM17.6576 38.9375V40.1535H20.5976V38.9375H17.6576Z" fill="#333333"/>
</svg>

<?xml version="1.0" encoding="UTF-8" standalone="no"?>
<!-- Created with Inkscape (http://www.inkscape.org/) -->
<svg id="svg8" xmlns:rdf="http://www.w3.org/1999/02/22-rdf-syntax-ns#" xmlns="http://www.w3.org/2000/svg" xmlns:osb="http://www.openswatchbook.org/uri/2009/osb" height="48" width="48" version="1.1" xmlns:cc="http://creativecommons.org/ns#" viewBox="0 0 12.7 12.7" xmlns:dc="http://purl.org/dc/elements/1.1/">
 <title id="title4753">UIO-icon</title>
 <metadata id="metadata5">
  <rdf:RDF>
   <cc:Work rdf:about="">
    <dc:format>image/svg+xml</dc:format>
    <dc:type rdf:resource="http://purl.org/dc/dcmitype/StillImage"/>
    <dc:title>UIO-icon</dc:title>
    <dc:creator>
     <cc:Agent>
      <dc:title>Joaquín Urbano</dc:title>
     </cc:Agent>
    </dc:creator>
    <dc:rights>
     <cc:Agent>
      <dc:title>GPL</dc:title>
     </cc:Agent>
    </dc:rights>
   </cc:Work>
  </rdf:RDF>
 </metadata>
 <g id="layer1" transform="translate(0,-284.3)">
  <path id="circle5040" d="m20.646 3.998c-1.064 0.0469-2.223 0.456-2.939 1.4571-0.987 1.6688 0.073 2.5066 1.555 3.0215-4.223 1.2932-7.502 4.2324-8.858 7.9394-0.298-0.068-0.6036-0.102-0.9099-0.104-2.3127 0-4.1875 1.875-4.1875 4.188s1.8748 4.188 4.1875 4.188c0.3912-0.001 0.7809-0.056 1.1559-0.165 2.091 4.828 7.404 8.027 13.342 8.034 2.901-0.007 5.73-0.782 8.112-2.221 1.294 1.41 3.12 2.215 5.035 2.219 3.785 0 6.853-3.069 6.853-6.854-0.003-1.503-0.5-2.963-1.414-4.156 0.09-0.341 0.135-0.692 0.137-1.045 0-2.313-1.875-4.188-4.188-4.188-0.313 0.002-0.625 0.039-0.929 0.11-1.876-5.156-7.381-8.6607-13.606-8.6622-0.358 0.0013-0.715 0.0143-1.072 0.039-0.878-0.6466-4.992-0.4592-3.234-2.0508 1.542-1.2653 3.715-0.6413 0.863 0.795 4.322-0.9921 2.44-2.6479 0.097-2.545zm3.676 4.2696c7.302 0.0037 12.095 5.1134 12.963 8.7774 1.806-0.626 4.841 0.345 4.906 3.486 0 0.172-0.016 0.34-0.043 0.504-1.294-1.392-3.108-2.185-5.009-2.187-3.785 0.001-6.852 3.069-6.852 6.853 0.003 1.527 0.515 3.009 1.455 4.211-2.304 1.434-4.905 2.246-7.094 2.123-6.984-0.004-12.131-3.644-13.705-8.119-2.1149 0.728-4.71-0.2-5.1149-3.373 0.0699-2.363 2.5165-4.518 4.8729-3.461 1.636-4.755 6.364-8.807 13.621-8.8144zm-4.31 8.7444c-0.834-0.001-1.51 0.674-1.51 1.508 0 0.833 0.676 1.508 1.51 1.507 0.832 0 1.507-0.675 1.508-1.507-0.001-0.833-0.676-1.508-1.508-1.508zm8 0c-0.834-0.001-1.51 0.674-1.51 1.508 0 0.833 0.676 1.508 1.51 1.507 0.832 0 1.507-0.675 1.508-1.507-0.001-0.833-0.676-1.508-1.508-1.508zm9.127 2.271c1.882 0.003 3.669 0.832 4.886 2.268l0.006 0.006c0.121 0.143 0.236 0.292 0.344 0.445 0.767 1.081 1.181 2.373 1.184 3.699 0 3.545-2.874 6.418-6.418 6.418-1.765-0.002-3.451-0.73-4.662-2.014-0.009-0.009-0.017-0.019-0.026-0.029-0.118-0.125-0.232-0.256-0.34-0.39l-0.002 0.002c-0.898-1.135-1.387-2.54-1.386-3.987 0-3.543 2.871-6.416 6.414-6.418zm-0.338 0.373c-1.214 0.038-2.334 0.67-2.99 1.692-1.099 1.71-0.6 3.986 1.111 5.084 0.675 0.43 1.471 0.629 2.269 0.566l0.62 2.838-1.436-0.352 2.223 2.057 1.226-2.811-1.164 0.905-0.613-2.803c0.807-0.263 1.498-0.796 1.957-1.51 1.097-1.71 0.602-3.986-1.108-5.084-0.623-0.4-1.354-0.603-2.095-0.582zm0.107 0.871c0.537 0 1.063 0.154 1.516 0.444 1.305 0.837 1.684 2.575 0.846 3.881-0.838 1.305-2.574 1.683-3.879 0.845s-1.682-2.574-0.844-3.879c0.517-0.804 1.405-1.291 2.361-1.291zm-17.744 3.118c-0.247 0.022-0.47 0.264-0.437 0.658 0.203 1.978 2.508 3.509 5.285 3.511 2.778 0 5.085-1.532 5.289-3.511-1.171 1.653-3.002 2.734-5.289 2.781-2.214-0.001-4.062-1.207-4.262-2.781-0.067-0.484-0.339-0.681-0.586-0.658zm-11.297 11.451c-0.8281 0-1.4624 0.274-1.9043 0.824-0.4384 0.55-0.6582 1.357-0.6582 2.418v1.398c0.0104 1.02 0.2354 1.802 0.6738 2.348s1.0703 0.82 1.8985 0.82c0.8385 0 1.4752-0.279 1.9101-0.836 0.4349-0.556 0.6519-1.359 0.6519-2.41v-1.398c-0.01-1.02-0.233-1.801-0.6714-2.344-0.4384-0.546-1.0723-0.82-1.9004-0.82zm5.9958 0c-0.462 0-0.887 0.09-1.273 0.267-0.383 0.178-0.681 0.424-0.897 0.741-0.212 0.313-0.318 0.667-0.318 1.064h1.508c0-0.254 0.098-0.459 0.293-0.615 0.195-0.16 0.436-0.241 0.724-0.241 0.321 0 0.571 0.086 0.752 0.256 0.185 0.171 0.278 0.409 0.278 0.715 0 0.317-0.093 0.571-0.278 0.762-0.184 0.191-0.468 0.287-0.851 0.287h-0.803v1.18h0.799c0.835 0 1.252 0.38 1.252 1.138 0 0.314-0.103 0.565-0.309 0.756-0.202 0.188-0.481 0.282-0.84 0.282-0.313 0-0.577-0.091-0.793-0.272-0.212-0.181-0.318-0.414-0.318-0.699h-1.508c0 0.657 0.239 1.188 0.719 1.588 0.484 0.4 1.105 0.599 1.863 0.599 0.811 0 1.463-0.204 1.953-0.611 0.495-0.407 0.741-0.948 0.741-1.623 0-0.418-0.106-0.78-0.319-1.086-0.208-0.306-0.527-0.534-0.955-0.688 0.345-0.156 0.624-0.381 0.836-0.673 0.212-0.293 0.319-0.613 0.319-0.961 0-0.675-0.228-1.203-0.684-1.586-0.456-0.386-1.087-0.58-1.891-0.58zm10.434 0c-0.828 0-1.463 0.274-1.904 0.824-0.439 0.55-0.659 1.357-0.659 2.418v1.398c0.011 1.02 0.236 1.802 0.674 2.348 0.439 0.546 1.072 0.82 1.901 0.82 0.838 0 1.475-0.279 1.91-0.836 0.435-0.556 0.652-1.359 0.652-2.41v-1.398c-0.01-1.02-0.235-1.801-0.674-2.344-0.438-0.546-1.072-0.82-1.9-0.82zm7.437 0.027c-0.769 0.004-1.444 0.179-2.029 0.527-0.581 0.345-1.029 0.832-1.342 1.465-0.309 0.63-0.465 1.357-0.465 2.182v0.543c0 0.929 0.246 1.672 0.737 2.228 0.494 0.557 1.141 0.836 1.941 0.836 0.494 0 0.937-0.111 1.326-0.334 0.394-0.222 0.696-0.533 0.909-0.933 0.215-0.4 0.324-0.848 0.324-1.342 0-0.773-0.196-1.396-0.586-1.869s-0.915-0.709-1.576-0.709c-0.616 0-1.126 0.204-1.53 0.615 0.084-0.612 0.332-1.091 0.746-1.436 0.418-0.344 0.969-0.52 1.651-0.531h0.146v-1.242h-0.252zm2.459 0.078v7.6h1.567v-2.078l-0.158-3.58 2.046 5.658h1.077l2.05-5.664-0.156 3.586v2.078h1.57v-7.6h-2.056l-1.942 5.512-1.951-5.512h-2.047zm-26.326 1.117c0.3653 0 0.6322 0.143 0.8027 0.432 0.174 0.285 0.2617 0.743 0.2617 1.373v1.807c-0.0069 0.595-0.0923 1.037-0.2558 1.326-0.1636 0.289-0.43 0.432-0.7988 0.432-0.3724 0-0.644-0.149-0.8145-0.448-0.167-0.302-0.25-0.765-0.25-1.385v-1.847c0.0104-0.581 0.0986-1.006 0.2656-1.278 0.1705-0.274 0.4342-0.412 0.7891-0.412zm16.43 0c0.365 0 0.634 0.143 0.805 0.432 0.174 0.285 0.259 0.743 0.259 1.373v1.807c-0.007 0.595-0.09 1.037-0.254 1.326-0.163 0.289-0.43 0.432-0.798 0.432-0.373 0-0.644-0.149-0.815-0.448-0.167-0.302-0.25-0.765-0.25-1.385v-1.847c0.011-0.581 0.099-1.006 0.266-1.278 0.17-0.274 0.432-0.412 0.787-0.412zm6.217 2.61c0.341 0 0.612 0.127 0.814 0.381s0.303 0.587 0.303 1.002c0 0.407-0.101 0.738-0.303 0.996-0.198 0.254-0.459 0.381-0.783 0.381-0.358 0-0.638-0.141-0.836-0.422-0.198-0.286-0.297-0.681-0.297-1.186v-0.459c0.094-0.209 0.241-0.375 0.44-0.5 0.198-0.129 0.418-0.193 0.662-0.193zm-12.856 0.01v1.216h2.94v-1.216h-2.94z" fill-rule="evenodd" transform="matrix(.26458 0 0 .26458 0 284.3)" fill="#333"/>
 </g>
</svg>
